X: 485
T: Bûselik`le Ol Mehe
C: Ahmet Avni Konuk
O: Turkey
F: http://compmusic.upf.edu/node/140
N: buselik--kupe--agiraksak--buselikle--ahmet_avni_konuk
N: makam= buselik
N: form= kupe
N: usul= agiraksak = 9/4
M: 9/4
L: 1/16
K: C    
Q: 1/4=60
%%MIDI tuningsystem comma53
c8 z2c4d2 c2B2 A2A2 A4 c2B2 A2^G2  | \
w:  Ah  Bû se lik *  *  *  le   | 
A6B2 c2d2 c2B2 B2A2 A2^G2 A6E2 F2G2  | 
w:  ol  *  me *  *  *  he  *  *  *  çat  | 
A8 z2c4c2 c8 d8 e4  | e2f2 e2d2 c4 d4 e2f2 e2d2 g8 ^2/4f2e2  | \
w:  *  lat sa  mut rıb   |  sâ *  *  *  zı *  nı    | 
e8 z2d4e2 e8 g2f2 f2e2 e2d2  | 
w:  *  Art tı rır  git  | 
d2_7/8e2 d2c2 d2e2 d2e2 g3^f e2d2 d2c2 c2B2 =e2dc  | \
w:  tik *  *  *  çe  *  *  *  bezm_ *  *  *  i   | 
c8 z2c2 B2c2 d4 e4 e2f2 e2d2 c2B2  | 
w:  *  mey *  de  ol  *  şeh   | 
A4 A2B2 c2d2 c2B2 B2A2 A2^G2 A8 z4  | |


